X:213
T:John McKenna's
T:Judy Callahan's
R:jig
D:John McKenna
D:Patrick Street 2
Z:id:hn-jig-213
M:6/8
K:A
cBA eAA|fAA eAA|cBA eAA|fed cBA|
cBA eAA|fAA eAA|Ace faf|ecA A2B:|
|:cee ~e3|cea ecA|dff f2e|dff fed|
cee efe|cea ecA|dcd faf|ecA A2B:|

